src/assets/icons/svg/note.svg

<svg width="22" height="24" viewBox="0 0 22 24" fill="none" xmlns="http://www.w3.org/2000/svg">
<path d="M13.625 23.0625C13.625 23.5803 13.2053 24 12.6875 24H4.01562C1.94781 24 0.265625 22.3178 0.265625 20.25V6.7901C0.265625 5.81671 0.643005 4.8999 1.32819 4.20868L4.42395 1.08545C5.10767 0.395691 6.05688 0 7.02826 0H15.5417C17.6094 0 19.2917 1.68219 19.2917 3.75V12.5156C19.2917 13.0334 18.8719 13.4531 18.3542 13.4531C17.8364 13.4531 17.4167 13.0334 17.4167 12.5156V3.75C17.4167 2.71619 16.5756 1.875 15.5417 1.875H7.02826C6.55365 1.875 6.08966 2.06836 5.75568 2.40546L2.65991 5.52869C2.50848 5.6814 2.38818 5.85681 2.30139 6.04688H4.90625C5.68152 6.04688 6.3125 5.41608 6.3125 4.64062C6.3125 4.1228 6.73218 3.70312 7.25 3.70312C7.76782 3.70312 8.1875 4.1228 8.1875 4.64062C8.1875 6.44989 6.71552 7.92188 4.90625 7.92188H2.14062V20.25C2.14062 21.2838 2.98163 22.125 4.01562 22.125H12.6875C13.2053 22.125 13.625 22.5447 13.625 23.0625ZM20.9106 23.1762C20.3624 23.7244 19.642 23.9987 18.9219 23.9987C18.2017 23.9987 17.4814 23.7244 16.9332 23.1762L11.8066 18.0401C11.6923 17.9257 11.6097 17.7838 11.5667 17.6279L10.5184 13.8441C10.4271 13.5145 10.5225 13.1614 10.7673 12.9227C11.0119 12.6839 11.3673 12.5973 11.6943 12.6967L15.3846 13.8177C15.5324 13.8625 15.6668 13.9431 15.7758 14.0524L20.9115 19.1995C22.0072 20.2954 22.0072 22.0796 20.9106 23.1762ZM13.3077 16.8898L16.7537 20.3423L18.0798 19.0162L14.6145 15.5433L12.7803 14.9863L13.3077 16.8898ZM19.5847 20.5247L19.4042 20.3436L18.0783 21.6694L18.2596 21.8511C18.6245 22.216 19.2192 22.216 19.5847 21.8505C19.9504 21.4849 19.9504 20.8901 19.5847 20.5247Z" fill="black"/>
</svg>

<?xml version="1.0" encoding="iso-8859-1"?>
<!-- Generator: Adobe Illustrator 23.1.0, SVG Export Plug-In . SVG Version: 6.00 Build 0)  -->
<svg version="1.1" id="&#x421;&#x43B;&#x43E;&#x439;_1"
	 xmlns="http://www.w3.org/2000/svg" xmlns:xlink="http://www.w3.org/1999/xlink" x="0px" y="0px" viewBox="0 0 22 24"
	 style="enable-background:new 0 0 22 24;" xml:space="preserve">
<path d="M13.625,23.063c0,0.518-0.42,0.938-0.938,0.938H4.016c-2.068,0-3.75-1.682-3.75-3.75V6.79c0-0.973,0.377-1.89,1.063-2.581
	l3.096-3.123C5.108,0.396,6.057,0,7.028,0h8.513c2.068,0,3.75,1.682,3.75,3.75v8.766c0,0.518-0.42,0.938-0.938,0.938
	c-0.518,0-0.938-0.42-0.938-0.938V3.75c0-1.034-0.841-1.875-1.875-1.875H7.028c-0.475,0-0.939,0.193-1.273,0.53L2.66,5.529
	C2.508,5.681,2.388,5.857,2.301,6.047h2.605c0.775,0,1.406-0.631,1.406-1.406c0-0.518,0.42-0.938,0.938-0.938
	s0.938,0.42,0.938,0.938c0,1.809-1.472,3.281-3.281,3.281H2.141V20.25c0,1.034,0.841,1.875,1.875,1.875h8.672
	C13.205,22.125,13.625,22.545,13.625,23.063z M20.911,23.176c-0.548,0.548-1.269,0.822-1.989,0.822c-0.72,0-1.441-0.274-1.989-0.822
	l-5.127-5.136c-0.114-0.114-0.197-0.256-0.24-0.412l-1.048-3.784c-0.091-0.33,0.004-0.683,0.249-0.921
	c0.245-0.239,0.6-0.325,0.927-0.226l3.69,1.121c0.148,0.045,0.282,0.125,0.391,0.235l5.136,5.147
	C22.007,20.295,22.007,22.08,20.911,23.176z M13.308,16.89l3.446,3.453l1.326-1.326l-3.465-3.473l-1.834-0.557L13.308,16.89z
	 M19.585,20.525l-0.181-0.181l-1.326,1.326l0.181,0.182c0.365,0.365,0.96,0.365,1.325-0.001C19.95,21.485,19.95,20.89,19.585,20.525
	z"/>
</svg>
